lib/brands/icons/vivaldi.svg

<svg xmlns="http://www.w3.org/2000/svg" fill="none" aria-hidden="true" viewBox="0 0 48 48"><g id="vivaldi-Icon"><g id="Group"><path id="Vector" fill="#EF3939" d="M23.9998 41.9998C31.8877 41.9998 36.271 41.9998 39.1354 39.1354C41.9998 36.271 41.9998 31.8877 41.9998 23.9998C41.9998 16.1121 41.9998 11.7287 39.1354 8.86435C36.271 6 31.8877 6 23.9998 6C16.1121 6 11.7233 6 8.86437 8.86435C6.00542 11.7287 6 16.1121 6 23.9998C6 31.8877 6 36.271 8.86437 39.1354C11.7287 41.9998 16.1121 41.9998 23.9998 41.9998Z"/><path id="Vector_2" fill="url(#paint0_linear_94_19096)" d="M35.7028 17.339C34.8338 15.7722 33.3391 14.4893 31.9319 13.3801C30.5246 12.2708 29.1433 11.6025 27.4166 11.1233C25.69 10.6441 23.9254 10.653 22.1477 10.8783C20.3699 11.1036 18.8403 11.5094 17.2879 12.4042C15.7354 13.299 14.5296 14.3946 13.4438 15.8198C12.358 17.245 11.6365 18.6602 11.1862 20.3943C10.7358 22.1283 10.5726 24.0495 10.8277 25.8226C11.0828 27.5959 11.3926 29.2834 12.3136 30.8203L12.3895 30.9504L18.7304 41.9425C19.7827 41.9715 20.9218 41.9841 22.1477 41.9805H23.9485C26.824 42.0423 29.7008 41.9572 32.5676 41.7256C35.437 41.4111 37.4981 40.7061 39.0766 39.1173C41.3981 36.7962 41.8376 33.4774 41.9189 28.1088L35.7028 17.339Z"/><path id="Vector_3" fill="white" d="M33.5355 14.4495C31.6475 12.5628 29.2425 11.2783 26.6249 10.7585C24.0071 10.2386 21.294 10.5067 18.8287 11.5289C16.3632 12.551 14.2561 14.2813 12.7737 16.5011C11.2912 18.7209 10.5 21.3305 10.5 23.9999C10.5 26.6694 11.2912 29.279 12.7737 31.4988C14.2561 33.7185 16.3632 35.4489 18.8287 36.471C21.294 37.4931 24.0071 37.7613 26.6249 37.2414C29.2425 36.7215 31.6475 35.4371 33.5355 33.5504C34.7921 32.2977 35.7891 30.8093 36.4694 29.1704C37.1496 27.5315 37.4999 25.7745 37.4999 23.9999C37.4999 22.2254 37.1496 20.4683 36.4694 18.8295C35.7891 17.1906 34.7921 15.7021 33.5355 14.4495ZM32.7263 20.6643C30.4994 24.5396 28.2744 28.413 26.0513 32.2847C25.8759 32.6279 25.6146 32.9199 25.2929 33.1322C24.9713 33.3444 24.6 33.4698 24.2156 33.4961C23.7911 33.5435 23.3622 33.4616 22.9851 33.2609C22.6082 33.0602 22.3005 32.7501 22.1028 32.3715C20.6961 29.9486 19.3003 27.5094 17.9045 25.0755C17.05 23.5979 16.1991 22.1166 15.3518 20.6317C15.1507 20.2983 15.0397 19.9183 15.03 19.529C15.0202 19.1397 15.1118 18.7546 15.2959 18.4115C15.48 18.0684 15.7503 17.7791 16.08 17.5721C16.4098 17.3651 16.7877 17.2476 17.1767 17.231C17.5954 17.2053 18.0126 17.3014 18.3778 17.5077C18.7431 17.714 19.0408 18.0217 19.2351 18.3935C19.8651 19.48 20.4843 20.5666 21.1035 21.6531C21.5543 22.4354 21.9887 23.2176 22.4504 23.9891C22.7439 24.5222 23.1701 24.9704 23.6877 25.2903C24.2055 25.6101 24.797 25.7906 25.4049 25.8144C26.3283 25.8716 27.2382 25.5713 27.9461 24.9755C28.6539 24.3797 29.1053 23.5344 29.2068 22.6146C29.2068 22.4679 29.2068 22.3212 29.2394 22.2452C29.2427 21.6639 29.1125 21.0897 28.8593 20.5666C28.7039 20.2784 28.6136 19.9598 28.5944 19.633C28.5752 19.3062 28.6278 18.9791 28.7484 18.6748C28.869 18.3705 29.0549 18.0963 29.2926 17.8714C29.5305 17.6465 29.8146 17.4764 30.1251 17.373C30.4356 17.2696 30.765 17.2354 31.0902 17.2729C31.4153 17.3103 31.7283 17.4184 32.0072 17.5897C32.2862 17.761 32.5242 17.9912 32.7047 18.2643C32.8851 18.5374 33.0038 18.8466 33.0521 19.1704C33.1133 19.6908 32.9985 20.2167 32.7263 20.6643Z"/></g></g><defs><linearGradient id="paint0_linear_94_19096" x1="17.2568" x2="34.4288" y1="12.3338" y2="42.0863" gradientUnits="userSpaceOnUse"><stop stop-opacity="0.2"/><stop offset="0.79" stop-opacity="0.05"/></linearGradient></defs></svg>

<svg xmlns="http://www.w3.org/2000/svg" fill="none" aria-hidden="true" viewBox="0 0 48 48"><path fill="#EF3939" d="M24 42c7.888 0 12.271 0 15.135-2.865C42 36.271 42 31.888 42 24s0-12.271-2.865-15.136C36.271 6 31.888 6 24 6S11.723 6 8.864 8.864C6.005 11.73 6 16.112 6 24c0 7.888 0 12.271 2.864 15.135C11.73 42 16.112 42 24 42Z"/><path fill="url(#a)" d="M35.703 17.339c-.87-1.567-2.364-2.85-3.771-3.959-1.407-1.11-2.789-1.778-4.515-2.257-1.727-.479-3.492-.47-5.27-.245-1.777.226-3.307.631-4.86 1.526-1.552.895-2.757 1.99-3.843 3.416-1.086 1.425-1.808 2.84-2.258 4.574-.45 1.734-.613 3.655-.358 5.429.255 1.773.565 3.46 1.486 4.997l.075.13 6.341 10.993c1.053.029 2.192.041 3.418.038h1.8a84.492 84.492 0 0 0 8.62-.255c2.869-.315 4.93-1.02 6.509-2.609 2.321-2.32 2.76-5.64 2.842-11.008l-6.216-10.77Z"/><path fill="#fff" d="M33.535 14.45A13.495 13.495 0 0 0 10.5 24a13.502 13.502 0 0 0 8.329 12.471 13.493 13.493 0 0 0 14.706-2.92 13.484 13.484 0 0 0 0-19.102Zm-.809 6.214-6.675 11.62a2.233 2.233 0 0 1-1.835 1.212 2.119 2.119 0 0 1-2.113-1.125c-1.407-2.422-2.803-4.862-4.199-7.296a886.142 886.142 0 0 1-2.552-4.443 2.243 2.243 0 0 1 1.825-3.401 2.172 2.172 0 0 1 2.058 1.162c.63 1.087 1.25 2.174 1.869 3.26.45.782.885 1.565 1.346 2.336a3.532 3.532 0 0 0 2.955 1.825 3.6 3.6 0 0 0 3.802-3.2c0-.146 0-.293.032-.369a3.803 3.803 0 0 0-.38-1.678 2.244 2.244 0 1 1 4.193-1.397 2.348 2.348 0 0 1-.326 1.494Z"/><defs><linearGradient id="a" x1="17.257" x2="34.429" y1="12.334" y2="42.086" gradientUnits="userSpaceOnUse"><stop stop-opacity=".2"/><stop offset=".79" stop-opacity=".05"/></linearGradient></defs></svg>
